games/files/popcat-classic/imgs/popcat.svg

<svg xmlns="http://www.w3.org/2000/svg" width="1017" height="188" viewBox="0 0 1017 188">
  <path fill="#FFF" stroke="#000" stroke-width="6" d="M26.125,183.5 C33.2916667,183.5 38.9583333,181.458333 43.125,177.375 C47.2916667,173.291667 49.375,167.75 49.375,160.75 L49.375,160.75 L49.375,118.25 L88.625,118.25 C107.958333,118.25 123.083333,113.25 134,103.25 C144.916667,93.25 150.375,79.5 150.375,62 C150.375,44.3333333 144.958333,30.5416667 134.125,20.625 C123.291667,10.7083333 108.125,5.75 88.625,5.75 L88.625,5.75 L24.625,5.75 C17.7916667,5.75 12.5416667,7.58333333 8.875,11.25 C5.20833333,14.9166667 3.375,20.1666667 3.375,27 L3.375,27 L3.375,160.75 C3.375,167.75 5.41666667,173.291667 9.5,177.375 C13.5833333,181.458333 19.125,183.5 26.125,183.5 Z M82.375,83.75 L49.375,83.75 L49.375,40.5 L82.375,40.5 C99.0416667,40.5 107.375,47.75 107.375,62.25 C107.375,69.5833333 105.333333,75 101.25,78.5 C97.1666667,82 90.875,83.75 82.375,83.75 L82.375,83.75 Z M253.875,184.25 C271.708333,184.25 287.25,180.541667 300.5,173.125 C313.75,165.708333 323.958333,155.208333 331.125,141.625 C338.291667,128.041667 341.875,112.083333 341.875,93.75 C341.875,75.4166667 338.333333,59.4583333 331.25,45.875 C324.166667,32.2916667 314,21.8333333 300.75,14.5 C287.5,7.16666667 271.875,3.5 253.875,3.5 C235.875,3.5 220.25,7.16666667 207,14.5 C193.75,21.8333333 183.541667,32.2916667 176.375,45.875 C169.208333,59.4583333 165.625,75.4166667 165.625,93.75 C165.625,112.083333 169.208333,128.041667 176.375,141.625 C183.541667,155.208333 193.75,165.708333 207,173.125 C220.25,180.541667 235.875,184.25 253.875,184.25 Z M253.875,149 C240.541667,149 230.125,144.333333 222.625,135 C215.125,125.666667 211.375,111.916667 211.375,93.75 C211.375,75.5833333 215.125,61.875 222.625,52.625 C230.125,43.375 240.541667,38.75 253.875,38.75 C267.041667,38.75 277.416667,43.4166667 285,52.75 C292.583333,62.0833333 296.375,75.75 296.375,93.75 C296.375,111.75 292.625,125.458333 285.125,134.875 C277.625,144.291667 267.208333,149 253.875,149 Z M391.875,183.5 C399.041667,183.5 404.708333,181.458333 408.875,177.375 C413.041667,173.291667 415.125,167.75 415.125,160.75 L415.125,160.75 L415.125,118.25 L454.375,118.25 C473.708333,118.25 488.833333,113.25 499.75,103.25 C510.666667,93.25 516.125,79.5 516.125,62 C516.125,44.3333333 510.708333,30.5416667 499.875,20.625 C489.041667,10.7083333 473.875,5.75 454.375,5.75 L454.375,5.75 L390.375,5.75 C383.541667,5.75 378.291667,7.58333333 374.625,11.25 C370.958333,14.9166667 369.125,20.1666667 369.125,27 L369.125,27 L369.125,160.75 C369.125,167.75 371.166667,173.291667 375.25,177.375 C379.333333,181.458333 384.875,183.5 391.875,183.5 Z M448.125,83.75 L415.125,83.75 L415.125,40.5 L448.125,40.5 C464.791667,40.5 473.125,47.75 473.125,62.25 C473.125,69.5833333 471.083333,75 467,78.5 C462.916667,82 456.625,83.75 448.125,83.75 L448.125,83.75 Z M619.375,184.25 C640.541667,184.25 659.125,178.666667 675.125,167.5 C677.958333,165.5 680,163.291667 681.25,160.875 C682.5,158.458333 683.125,155.5 683.125,152 C683.125,146.833333 681.666667,142.458333 678.75,138.875 C675.833333,135.291667 672.291667,133.5 668.125,133.5 C665.791667,133.5 663.791667,133.833333 662.125,134.5 C661.083333,134.916667 659.683594,135.561198 657.925781,136.433594 L657.203559,136.794705 C656.338686,137.230179 655.395833,137.715278 654.375,138.25 C647.041667,141.583333 641.041667,144.041667 636.375,145.625 C631.708333,147.208333 626.875,148 621.875,148 C607.041667,148 596,143.541667 588.75,134.625 C581.5,125.708333 577.875,112.083333 577.875,93.75 C577.875,75.5833333 581.5,62.0416667 588.75,53.125 C596,44.2083333 607.041667,39.75 621.875,39.75 C627.375,39.75 632.708333,40.5 637.875,42 C643.041667,43.5 648.541667,46 654.375,49.5 C657.041667,51.1666667 659.375,52.375 661.375,53.125 C663.375,53.875 665.625,54.25 668.125,54.25 C672.291667,54.25 675.833333,52.4583333 678.75,48.875 C681.666667,45.2916667 683.125,40.9166667 683.125,35.75 C683.125,32.0833333 682.5,29.0833333 681.25,26.75 C680,24.4166667 677.958333,22.25 675.125,20.25 C659.125,9.08333333 640.541667,3.5 619.375,3.5 C601.708333,3.5 586.25,7.16666667 573,14.5 C559.75,21.8333333 549.5,32.3333333 542.25,46 C535,59.6666667 531.375,75.5833333 531.375,93.75 C531.375,112.083333 535,128.083333 542.25,141.75 C549.5,155.416667 559.75,165.916667 573,173.25 C586.25,180.583333 601.708333,184.25 619.375,184.25 Z M852.625,182.75 C858.291667,182.75 863.333333,180.833333 867.75,177 C872.166667,173.166667 874.375,168.5 874.375,163 C874.375,160 873.625,156.916667 872.125,153.75 L872.125,153.75 L806.125,18.25 C803.958333,13.75 800.708333,10.2916667 796.375,7.875 C792.041667,5.45833333 787.375,4.25 782.375,4.25 C777.208333,4.25 772.5,5.45833333 768.25,7.875 C764,10.2916667 760.791667,13.75 758.625,18.25 L758.625,18.25 L692.625,153.75 C691.125,156.916667 690.375,160 690.375,163 C690.375,168.5 692.666667,173.166667 697.25,177 C701.833333,180.833333 706.958333,182.75 712.625,182.75 C716.458333,182.75 720,181.75 723.25,179.75 C726.5,177.75 729.041667,174.75 730.875,170.75 L730.875,170.75 L742.375,145.5 L823.375,145.5 L834.625,170.75 C836.458333,174.75 838.958333,177.75 842.125,179.75 C845.291667,181.75 848.791667,182.75 852.625,182.75 Z M807.875,111 L757.875,111 L782.875,55.25 L807.875,111 Z M933.625,183.25 C940.625,183.25 946.25,181.208333 950.5,177.125 C954.75,173.041667 956.875,167.583333 956.875,160.75 L956.875,160.75 L956.875,43 L992.125,43 C999.458333,43 1004.91667,41.4583333 1008.5,38.375 C1012.08333,35.2916667 1013.875,30.5833333 1013.875,24.25 C1013.875,17.9166667 1012.08333,13.25 1008.5,10.25 C1004.91667,7.25 999.458333,5.75 992.125,5.75 L992.125,5.75 L875.125,5.75 C867.791667,5.75 862.333333,7.25 858.75,10.25 C855.166667,13.25 853.375,17.9166667 853.375,24.25 C853.375,30.5833333 855.166667,35.2916667 858.75,38.375 C862.333333,41.4583333 867.791667,43 875.125,43 L875.125,43 L910.375,43 L910.375,160.75 C910.375,167.583333 912.5,173.041667 916.75,177.125 C921,181.208333 926.625,183.25 933.625,183.25 Z"/>
</svg>

<svg xmlns="http://www.w3.org/2000/svg" width="1017" height="188"><path fill="#FFF" stroke="#000" stroke-width="6" d="M26.125 183.5q10.75 0 17-6.125t6.25-16.625v-42.5h39.25q29 0 45.375-15T150.375 62q0-26.5-16.25-41.375T88.625 5.75h-64q-10.25 0-15.75 5.5T3.375 27v133.75q0 10.5 6.125 16.625t16.625 6.125Zm56.25-99.75h-33V40.5h33q25 0 25 21.75 0 11-6.125 16.25t-18.875 5.25Zm171.5 100.5q26.75 0 46.625-11.125t30.625-31.5 10.75-47.875-10.625-47.875-30.5-31.375-46.875-11T207 14.5t-30.625 31.375-10.75 47.875 10.75 47.875 30.625 31.5 46.875 11.125Zm0-35.25q-20 0-31.25-14t-11.25-41.25 11.25-41.125 31.25-13.875q19.75 0 31.125 14t11.375 41-11.25 41.125T253.875 149Zm138 34.5q10.75 0 17-6.125t6.25-16.625v-42.5h39.25q29 0 45.375-15T516.125 62q0-26.5-16.25-41.375t-45.5-14.875h-64q-10.25 0-15.75 5.5t-5.5 15.75v133.75q0 10.5 6.125 16.625t16.625 6.125Zm56.25-99.75h-33V40.5h33q25 0 25 21.75 0 11-6.125 16.25t-18.875 5.25Zm171.25 100.5q31.75 0 55.75-16.75 4.25-3 6.125-6.625t1.875-8.875q0-7.75-4.375-13.125t-10.625-5.375q-3.5 0-6 1-1.562.625-4.2 1.934l-.721.36q-1.298.654-2.829 1.456-11 5-18 7.375a44.8 44.8 0 0 1-14.5 2.375q-22.25 0-33.125-13.375T577.875 93.75q0-27.25 10.875-40.625t33.125-13.375q8.25 0 16 2.25t16.5 7.5q4 2.5 7 3.625t6.75 1.125q6.25 0 10.625-5.375 4.375-5.374 4.375-13.125 0-5.5-1.875-9t-6.125-6.5q-24-16.75-55.75-16.75-26.5 0-46.375 11T542.25 46t-10.875 47.75q0 27.5 10.875 48t30.75 31.5 46.375 11Zm233.25-1.5q8.5 0 15.125-5.75t6.625-14q0-4.5-2.25-9.25l-66-135.5q-3.25-6.75-9.75-10.375t-14-3.625q-7.75 0-14.125 3.625t-9.625 10.375l-66 135.5q-2.25 4.75-2.25 9.25 0 8.25 6.875 14 6.874 5.75 15.375 5.75 5.75 0 10.625-3t7.625-9l11.5-25.25h81l11.25 25.25q2.75 6 7.5 9t10.5 3ZM807.875 111h-50l25-55.75zm125.75 72.25q10.5 0 16.875-6.125t6.375-16.375V43h35.25q11 0 16.375-4.625t5.375-14.125-5.375-14-16.375-4.5h-117q-11 0-16.375 4.5t-5.375 14 5.375 14.125T875.125 43h35.25v117.75q0 10.25 6.375 16.375t16.875 6.125Z"/></svg>
